@extra/phlat-icons/symbolic-24/chrome-bikioccmkafdpakkkcpdbppfkghcmihk-Default.svg

<svg xmlns="http://www.w3.org/2000/svg" version="1.1" viewBox="-4 -4 24 24"><path fill="#f1f2f2" d="m7.5059 0c-0.01 0.023-0.0338 0.014625-0.0508 0.015625a7.4 7.4 0 0 0 -0.709 0.091795c-1.72 0.32-3.1316 1.1474-4.2246 2.4844a6.613 6.613 0 0 0 -1.502 3.7656c-0.05197 0.682-0.0016 1.6572 0.1504 2.3242 0.114 0.495 0.2828 0.9737 0.5098 1.4314l0.0605 0.116a6.896 6.896 0 0 0 2.4766 2.703 7.012 7.012 0 0 0 3.6836 1.082c0.081 0 0.1035 0.019 0.1035 0.101-0.004 0.7-0.0019 1.098-0.0019 1.797 0 0.027 0.0019 0.054 0.0039 0.088l0.0507-0.02c1.34-0.617 2.5684-1.097 3.6644-2.074 0.218-0.195 0.428-0.397 0.629-0.609 0.086-0.09 0.168-0.184 0.255-0.274 0.133-0.14 0.249-0.296 0.374-0.443 0.145-0.169 0.275-0.348 0.404-0.529 0.283-0.4 0.537-0.819 0.75-1.26 0.108-0.223 0.21-0.448 0.301-0.678l0.009-0.013c0.247-0.6304 0.406-1.2826 0.491-1.9516 0.029-0.233 0.046-0.7679 0.058-1.0019a6.384 6.384 0 0 0 -0.099 -1.502 6.754 6.754 0 0 0 -1.774 -3.4668 7.018 7.018 0 0 0 -4.2967 -2.1347c-0.13-0.015031-0.2617-0.013-0.3907-0.043h-0.9257zm0.4941 4c1.105 0 2 0.839 2 1.875-0.001 0.561-0.2685 1.0923-0.7305 1.4473l0.7305 2.6777h-4l0.7305-2.6777c-0.462-0.356-0.7305-0.8873-0.7305-1.4473 0-1.035 0.895-1.875 2-1.875z"/></svg>

<svg xmlns="http://www.w3.org/2000/svg" viewBox="-4 -4 24 24">
    <path fill="#f1f2f2" d="M7.506 0c-.01.023-.034.015-.05.016a7.4 7.4 0 0 0-.71.091c-1.72.32-3.132 1.148-4.224 2.485A6.613 6.613 0 0 0 1.02 6.357c-.052.682-.002 1.658.15 2.325.114.495.283.973.51 1.431l.06.116a6.896 6.896 0 0 0 2.477 2.703A7.012 7.012 0 0 0 7.9 14.014c.081 0 .104.019.104.101-.004.7-.002 1.098-.002 1.797 0 .027.002.054.004.088l.05-.02c1.34-.617 2.569-1.097 3.665-2.074.218-.195.428-.397.629-.609.086-.09.168-.184.255-.274.133-.14.249-.296.374-.443.145-.169.275-.348.404-.529.283-.4.537-.819.75-1.26.108-.223.21-.448.301-.678l.009-.013c.247-.63.406-1.283.491-1.952.029-.233.046-.767.058-1.001a6.384 6.384 0 0 0-.099-1.502 6.754 6.754 0 0 0-1.774-3.467A7.018 7.018 0 0 0 8.822.043C8.692.028 8.561.03 8.432 0h-.926zM8 4c1.105 0 2 .839 2 1.875a1.831 1.831 0 0 1-.73 1.447L10 10H6l.73-2.678A1.831 1.831 0 0 1 6 5.875C6 4.84 6.895 4 8 4z"/>
</svg>
